X: 1
T: Kilglass Lakes
M: 6/8
L: 1/8
R: jig
K: Dmaj
DED DFA|BAF d2e|faf ede|fdB AFE|
DED DFA|BAF d2e|faf ede|1 fdd d2 D :|2 fdd d2 e ||
||faa fbb|afe ~f3|~f3 dBA|(3Bcd B AFE|
DED DFA|BAF d2e|faf ede|1 fdd d2 e :|2 fdd d2 D ||
